dist/svg/observable.svg

<!-- Generated by Trend Micro Style Portal -->
<svg version="1.1" xmlns="http://www.w3.org/2000/svg" width="16" height="16" viewBox="0 0 16 16">
  <title>observable</title>
  <path fill="rgb(34,34,34)" d="M15.429 3.429v0c-0.566-1.973-2.341-3.398-4.454-3.429l-0.003-0h-0.040c-1.679 0.004-3.145 0.913-3.937 2.264l-0.012 0.022h-0.971c-1.873 0.002-3.426 1.366-3.723 3.155l-0.003 0.022c-1.319 0.323-2.284 1.494-2.286 2.891v0.086c0.016 0.928 0.457 1.75 1.136 2.281l0.007 0.005v2.417l5.714 2.857 5.714-2.857v-1.714h1.6c2.272 0 4.114-1.842 4.114-4.114v0c-0.046-1.792-1.199-3.303-2.799-3.876l-0.030-0.009h-0.029zM6.286 14.4l-4-1.943v-3.771l4 1.943zM3.086 7.771l3.771-1.943 3.771 1.943-3.771 1.829zM11.429 12.457l-4 1.943v-3.771l4-1.943z"></path>
</svg>

<svg width="19" height="16" viewBox="0 0 19 16" fill="rgb(34, 34, 34)" xmlns="http://www.w3.org/2000/svg"><title>observable</title><path d="M15.429 3.429C14.863 1.456 13.088 0.031 10.975 0H10.972H10.932C9.253 0.004 7.787 0.913 6.995 2.264L6.983 2.286H6.012C4.139 2.288 2.586 3.652 2.289 5.441L2.286 5.463C0.967 5.786 0.002 6.957 0 8.354V8.44C0.016 9.368 0.457 10.19 1.136 10.721L1.143 10.726V13.143L6.857 16L12.571 13.143V11.429H14.171C16.443 11.429 18.285 9.587 18.285 7.315C18.239 5.523 17.086 4.012 15.486 3.439L15.456 3.43H15.427L15.429 3.429ZM6.286 14.4L2.286 12.457V8.686L6.286 10.629V14.4ZM3.086 7.771L6.857 5.828L10.628 7.771L6.857 9.6L3.086 7.771ZM11.429 12.457L7.429 14.4V10.629L11.429 8.686V12.457Z" fill="rgb(34, 34, 34)" fill-opacity="1.00"/></svg>
